X:1
T:Title
%%score { 1 | ( 2 3 ) }
L:1/8
Q:1/4=100
M:4/4
K:G
V:1 treble nm="Grand Piano"
V:2 treble 
V:3 treble 
V:1
 B3 c d2 d2 | ed[Ac][GB] [FA]4 | [FA]3 [GB] [Ac]2 [Ac]2 | [Bd][Ac][GB]A [DGB]4 | %4
w: Geo.~C.~Hugg * * *||||
 [EGc]3 [DGd] [Ge]2 [Ge]2 | [Gc]2 [Ge]2 [Gd]2 [GB]2 | [FA]2 [FA]2 [Fd]2 F2 | A2 G6 | %8
w: ||||
 Bc B2 d2 [Bd]2 | [FA][GB] [FA]2 [Ac]2 [Fc]2 | [GB]2 [GB]2 [Gd]3 [Ac] | [GB]2 [FA]6 | %12
w: ||||
 GA B2 [Gc]2 [Gc]2 |[M:9/8] [Gd]2 [Gd]- [Gd] [Ge]2 [Ge]3 |[M:4/4] [Gd]3 [Ac] [GB]2 [GB]2 | %15
w: |||
 [FA]2 [Fd]2 G4 |] %16
w: |
V:2
 [G,DG]3 [G,CG] [G,B,G]2 [G,B,G]2 | [G,G]2[K:bass] z2 z4 | [D,D]3 [D,D] [D,D]2 [D,D]2 | %3
 [D,D]2 z[K:treble] F G,4 | C,3 C, [C,C]2 [C,C]2 | [E,C]2 [C,C]2 [G,B,]2 [G,D]2 | %6
 [D,D]2 [D,D]2 [D,A,]2 [D,A,D]2 | [D,CD]2[K:treble] [G,B,D]6 | %8
 [G,DG][G,DA] [G,DG]2 [B,DG]2[K:bass] [G,D]2 | [D,D][D,D] [D,D]2 [F,D]2 [D,D]2 | %10
 [G,D]2 [G,D]2 [B,,G,]3 [C,A,] | [D,D]2 [D,D]6 | [G,B,D][F,CD] [=F,CD]2 [E,E]2 [E,C]2 | %13
[M:9/8] [D,B,]2 [D,B,]- [D,B,] [C,C]2 [^C,_B,]3 |[M:4/4] [D,B,]3 [D,C] [D,D]2 [D,D]2 | %15
 [D,A,]2 [D,C]2 [G,B,]4 |] %16
V:3
 x8 | C[K:bass]B, [G,D]2 [D,D]4 | x8 | z2 [D,D]2[K:treble] z4 | x8 | x8 | x8 | x2[K:treble] x6 | %8
 x6[K:bass] x2 | x8 | x8 | x8 | x8 |[M:9/8] x9 |[M:4/4] x8 | x8 |] %16

